X: 25
T: Erika Damiani's Birthday Reel thang
C: Armand Aromin 2/05/07
M: 4/4
L: 1/8
R: Reel
K: Dmaj
dFFF BAFB | AFFF DEFA | BGGG edcB | ABGA FABc |
dFFF BAFB | AFFF DEFA | BGGG gfed |1 cABc dffe :|2 cABc daag ||
f3 e fg a2 | FAAF ABcd | efed cdef | gAfA eaag |
f3 e fg a2 | FAAF ABcd | e^def gbag |1 f3 e daag :|2 f3 e dffe |]
